svg/diagonalOutlineChecksTopLeft.svg

<svg width="32" height="32" viewBox="0 0 8.467 8.467" xmlns="http://www.w3.org/2000/svg"><path style="fill:#000;fill-opacity:1;stroke:none;stroke-width:.264583px;stroke-linecap:butt;stroke-linejoin:miter;stroke-opacity:1" d="M0 0v.53L.53 0ZM5.557 0h1.058l-.53.53L5.557 0M8.467 2.91V1.852l-.53.53.53.528M2.382.53.53 2.38l1.852 1.853 1.852-1.852Zm0 .528 1.322 1.323-1.322 1.323-1.323-1.323Z"/></svg>

<?xml version="1.0" encoding="UTF-8" standalone="no"?>
<svg
    width="32"
    height="32"
    viewBox="0 0 8.467 8.467"
    version="1.1"
    id="svg391"
    sodipodi:docname="diagonalOutlineChecksTopLeft.svg"
    inkscape:version="1.2 (dc2aeda, 2022-05-15)"
    xmlns:inkscape="http://www.inkscape.org/namespaces/inkscape"
    xmlns:sodipodi="http://sodipodi.sourceforge.net/DTD/sodipodi-0.dtd"
    xmlns="http://www.w3.org/2000/svg"
>
  <defs
     id="defs395" />
  <sodipodi:namedview
     id="namedview393"
     pagecolor="#505050"
     bordercolor="#ffffff"
     borderopacity="1"
     inkscape:showpageshadow="0"
     inkscape:pageopacity="0"
     inkscape:pagecheckerboard="1"
     inkscape:deskcolor="#505050"
     showgrid="false"
     inkscape:zoom="32.09375"
     inkscape:cx="16"
     inkscape:cy="15.984421"
     inkscape:window-width="2560"
     inkscape:window-height="1412"
     inkscape:window-x="0"
     inkscape:window-y="28"
     inkscape:window-maximized="0"
     inkscape:current-layer="svg391" />
  <path
     style="fill:#000000;fill-opacity:1;stroke:none;stroke-width:0.264583px;stroke-linecap:butt;stroke-linejoin:miter;stroke-opacity:1"
     d="M 0,0 V 0.53 L 0.53,0 Z"
     id="path526" />
  <path
     style="fill:#000000;fill-opacity:1;stroke:none;stroke-width:0.264583px;stroke-linecap:butt;stroke-linejoin:miter;stroke-opacity:1"
     d="M 5.557,0 H 6.615 L 6.085,0.53 5.557,0"
     id="path522" />
  <path
     style="fill:#000000;fill-opacity:1;stroke:none;stroke-width:0.264583px;stroke-linecap:butt;stroke-linejoin:miter;stroke-opacity:1"
     d="M 8.467,2.91 V 1.852 l -0.53,0.53 0.53,0.528"
     id="path518" />
  <path
     id="path389"
     style="fill:#000000;fill-opacity:1;stroke:none;stroke-width:0.264583px;stroke-linecap:butt;stroke-linejoin:miter;stroke-opacity:1"
     d="M 2.382,0.53 0.53,2.38 2.382,4.233 4.234,2.381 Z m 0,0.528 L 3.704,2.381 2.382,3.704 1.059,2.381 Z" />
</svg>
